material/.icons/material/speaker.svg

<svg xmlns="http://www.w3.org/2000/svg" viewBox="0 0 24 24"><path d="M12 12a3 3 0 00-3 3 3 3 0 003 3 3 3 0 003-3 3 3 0 00-3-3m0 8a5 5 0 01-5-5 5 5 0 015-5 5 5 0 015 5 5 5 0 01-5 5m0-16a2 2 0 012 2 2 2 0 01-2 2 2 2 0 01-2-2c0-1.11.89-2 2-2m5-2H7c-1.11 0-2 .89-2 2v16a2 2 0 002 2h10a2 2 0 002-2V4a2 2 0 00-2-2z"/></svg>

<?xml version="1.0" encoding="UTF-8"?><!DOCTYPE svg PUBLIC "-//W3C//DTD SVG 1.1//EN" "http://www.w3.org/Graphics/SVG/1.1/DTD/svg11.dtd"><svg xmlns="http://www.w3.org/2000/svg" xmlns:xlink="http://www.w3.org/1999/xlink" version="1.1" id="mdi-speaker" width="24" height="24" viewBox="0 0 24 24"><path d="M12,12A3,3 0 0,0 9,15A3,3 0 0,0 12,18A3,3 0 0,0 15,15A3,3 0 0,0 12,12M12,20A5,5 0 0,1 7,15A5,5 0 0,1 12,10A5,5 0 0,1 17,15A5,5 0 0,1 12,20M12,4A2,2 0 0,1 14,6A2,2 0 0,1 12,8C10.89,8 10,7.1 10,6C10,4.89 10.89,4 12,4M17,2H7C5.89,2 5,2.89 5,4V20A2,2 0 0,0 7,22H17A2,2 0 0,0 19,20V4C19,2.89 18.1,2 17,2Z" /></svg>
